www/assets/icons/flight_class.svg

<svg xmlns="http://www.w3.org/2000/svg" width="24" height="24" viewBox="0 0 24 24" fill='currentColor'><path d="M16.5 3.5h-2c-1.1 0-2 .9-2 2v5c0 1.1.9 2 2 2h2c1.1 0 2-.9 2-2v-5c0-1.1-.9-2-2-2m-6.5 12h8.5v2H9.99c-.88 0-1.66-.58-1.92-1.43L5.5 7.5v-4h2v4zm-1.5 3h10v2h-10z"/></svg>

<svg width="24" height="24" viewBox="0 0 24 24" xmlns="http://www.w3.org/2000/svg" fill='currentColor'><path d="M16.5 3.5H14.5C13.4 3.5 12.5 4.4 12.5 5.5V10.5C12.5 11.6 13.4 12.5 14.5 12.5H16.5C17.6 12.5 18.5 11.6 18.5 10.5V5.5C18.5 4.4 17.6 3.5 16.5 3.5ZM10 15.5H18.5V17.5H9.99C9.11 17.5 8.33 16.92 8.07 16.07L5.5 7.5V3.5H7.5V7.5L10 15.5ZM8.5 18.5H18.5V20.5H8.5V18.5Z"/></svg>
